_inc/systems/logos/astrocade.svg

<?xml version="1.0" encoding="utf-8"?>
<svg version="1.1" viewBox="0 0 264 47" xmlns="http://www.w3.org/2000/svg">
  <polygon points="166.675 9.199 166.675 8.043 174.735 8.043 174.735 18.273 169.013 18.273 169.013 20.287 167.044 20.287 167.044 22.546 164.776 22.546 164.776 32.372 166.736 32.372 166.736 34.447 168.89 34.447 168.89 36.644 174.735 36.644 174.735 47 166.736 47 166.736 45.725 164.275 45.725 164.275 44.531 162.306 44.531 162.306 42.861 160.522 42.861 160.522 40.644 158.43 40.644 158.43 38.46 156.462 38.46 156.462 35.836 154.554 35.836 154.554 19.089 156.462 19.089 156.462 16.564 158.369 16.564 158.369 14.281 160.584 14.281 160.584 12.098 162.306 12.098 162.306 10.522 164.091 10.522 164.091 9.199" style="fill: rgb(255, 255, 255);"/>
  <polygon points="188.54 9.008 188.54 7.995 197.153 7.995 197.153 9.008 199.614 9.008 199.614 10.291 201.461 10.291 201.461 12.123 203.43 12.123 203.43 14.078 205.46 14.078 205.46 16.337 207.552 16.337 207.552 46.975 198.046 46.975 198.046 20.428 195.985 20.428 195.985 18.536 191.002 18.536 191.002 20.306 188.787 20.306 188.787 22.445 186.509 22.445 186.509 32.339 188.662 32.339 188.662 34.537 190.632 34.537 190.632 36.308 195.923 36.308 195.923 46.975 188.54 46.975 188.54 46.141 185.955 46.141 185.955 44.859 184.294 44.859 184.294 43.088 182.325 43.088 182.325 41.011 180.417 41.011 180.417 38.629 178.51 38.629 178.51 36.004 176.418 36.004 176.418 19.147 178.202 19.147 178.202 16.564 180.356 16.564 180.356 14.322 182.325 14.322 182.325 12.061 184.171 12.061 184.171 10.413 186.078 10.413 186.078 9.005" style="fill: rgb(255, 255, 255);"/>
  <polygon points="12.122 9.008 12.122 7.995 20.735 7.995 20.735 9.008 23.196 9.008 23.196 10.291 25.043 10.291 25.043 12.123 27.012 12.123 27.012 14.078 29.043 14.078 29.043 16.338 31.135 16.338 31.135 46.975 21.628 46.975 21.628 20.429 19.567 20.429 19.567 18.536 14.584 18.536 14.584 20.306 12.369 20.306 12.369 22.445 10.091 22.445 10.091 32.339 12.244 32.339 12.244 34.537 14.214 34.537 14.214 36.308 19.505 36.308 19.505 46.975 12.122 46.975 12.122 46.142 9.537 46.142 9.537 44.859 7.876 44.859 7.876 43.088 5.907 43.088 5.907 41.012 4 41.012 4 38.629 2.092 38.629 2.092 36.004 0 36.004 0 19.147 1.784 19.147 1.784 16.564 3.939 16.564 3.939 14.322 5.907 14.322 5.907 12.061 7.753 12.061 7.753 10.413 9.66 10.413 9.66 9.005" style="fill: rgb(255, 255, 255);"/>
  <polygon points="228.954 18.128 228.954 7.995 221.475 7.995 221.475 9.058 219.113 9.064 219.113 10.314 217.068 10.314 217.068 12.034 215.021 12.034 215.021 14.22 213.21 14.22 213.21 16.409 211.242 16.409 211.242 19.144 209.196 19.144 209.196 35.865 211.321 35.865 211.321 38.522 213.21 38.522 213.21 40.944 215.179 40.944 215.179 43.21 217.147 43.21 217.147 44.929 219.113 44.929 219.113 46.101 221.791 46.101 221.791 46.975 230.763 46.975 230.763 46.179 233.204 46.179 233.204 44.773 234.857 44.773 234.857 42.819 236.669 42.819 236.669 40.553 238.872 40.553 238.872 38.365 240.84 38.365 240.84 0 230.685 0 230.685 34.537 228.954 34.537 228.954 36.334 223.6 36.334 223.6 34.537 221.791 34.537 221.791 32.193 219.665 32.193 219.665 22.426 221.947 22.426 221.947 20.394 223.916 20.394 223.916 18.128" style="fill: rgb(255, 255, 255);"/>
  <polygon points="244.88 18.886 244.88 16.427 246.595 16.427 246.595 14.283 248.628 14.283 248.628 12.076 250.408 12.076 250.408 10.31 252.44 10.31 252.44 8.86 254.727 8.86 254.727 7.995 264 7.995 264 18.318 257.521 18.318 257.521 19.894 255.425 19.894 255.425 21.092 253.518 21.092 253.518 22.48 264 22.48 264 32.127 253.582 32.127 253.582 33.641 255.552 33.641 255.552 34.838 257.394 34.838 257.394 36.352 264 36.352 264 46.975 254.727 46.975 254.727 46.125 252.565 46.125 252.565 44.801 250.596 44.801 250.596 43.035 248.756 43.035 248.756 41.08 246.595 41.08 246.595 38.559 244.88 38.559 244.88 35.784 242.593 35.784 242.593 18.879" style="fill: rgb(255, 255, 255);"/>
  <polygon points="62.677 22.724 62.677 16.459 60.729 16.459 60.729 14.139 58.724 14.139 58.724 12.007 56.913 12.007 56.913 10.355 55.006 10.355 55.006 9.053 52.652 9.053 52.652 7.995 42.911 7.995 42.911 9.053 40.313 9.053 40.313 10.355 38.568 10.355 38.568 12.007 36.742 12.007 36.742 14.139 34.631 14.139 34.631 16.337 32.885 16.337 32.885 26.549 34.833 26.549 34.833 28.543 36.822 28.543 36.822 30.373 50.501 30.373 50.501 32.408 52.53 32.408 52.53 34.403 50.419 34.403 50.419 36.477 45.184 36.477 45.184 34.321 43.317 34.321 43.317 32.286 32.885 32.286 32.885 38.512 34.833 38.512 34.833 40.627 36.863 40.627 36.863 42.744 38.893 42.744 38.893 44.412 40.678 44.412 40.678 45.714 43.113 45.714 43.113 46.975 52.774 46.975 52.774 45.714 54.966 45.714 54.966 44.412 56.913 44.412 56.913 42.744 58.861 42.744 58.861 40.669 60.769 40.669 60.769 38.553 62.677 38.553 62.677 28.787 60.323 28.787 60.323 26.874 58.334 26.874 58.334 24.596 45.143 24.596 45.143 22.561 43.154 22.561 43.154 20.567 45.143 20.567 45.143 18.411 50.379 18.411 50.379 20.731 52.327 20.731 52.327 22.724" style="fill: rgb(255, 255, 255);"/>
  <polygon points="84.549 36.76 84.549 34.607 82.564 34.607 82.564 32.577 80.741 32.577 80.741 18.482 86.776 18.482 86.776 14.867 84.427 14.867 84.427 12.632 82.24 12.632 82.24 10.926 80.741 10.926 80.741 4.549 70.371 4.549 70.371 10.926 69.034 10.926 69.034 12.632 67.008 12.632 67.008 14.867 64.457 14.867 64.457 18.482 70.371 18.482 70.371 35.826 72.396 35.826 72.396 38.263 74.098 38.263 74.098 40.619 76.082 40.619 76.082 43.016 77.825 43.016 77.825 44.802 79.566 44.802 79.566 46.103 82.199 46.103 82.199 46.955 89.532 46.955 89.532 36.76" style="fill: rgb(255, 255, 255);"/>
  <polygon points="112.475 30.204 114.685 30.204 114.685 28.007 116.529 28.007 116.529 25.525 117.636 25.525 117.636 16.373 116.283 16.373 116.283 14.34 114.561 14.34 114.561 12.184 112.553 12.184 112.553 10.475 110.339 10.475 110.339 9.174 108.208 9.174 108.208 7.995 101.609 7.995 101.609 9.174 99.765 9.174 99.765 10.475 97.715 10.475 97.715 12.184 95.502 12.184 95.502 14.34 93.534 14.34 93.534 16.333 91.321 16.333 91.321 46.962 101.404 46.962 101.404 18.407 108.208 18.407 108.208 23.858 106.118 23.858 106.118 25.322 102.961 25.322 102.961 32.604 109.109 46.962 119.521 46.962" style="fill: rgb(255, 255, 255);"/>
  <path d="M 151.108 19.103 L 151.108 16.498 L 149.079 16.498 L 149.079 14.3 L 147.012 14.3 L 147.012 12.102 L 145.186 12.102 L 145.186 10.522 L 143.321 10.522 L 143.321 9.215 L 140.966 9.215 L 140.966 7.995 L 131.192 7.995 L 131.192 9.216 L 128.883 9.216 L 128.883 10.436 L 126.855 10.436 L 126.855 12.104 L 125.193 12.104 L 125.193 14.301 L 123.043 14.301 L 123.043 16.499 L 121.178 16.499 L 121.178 19.104 L 119.19 19.104 L 119.19 19.145 L 119.19 35.825 L 119.19 35.868 L 121.178 35.868 L 121.178 38.471 L 123.043 38.471 L 123.043 40.671 L 125.193 40.671 L 125.193 42.868 L 126.855 42.868 L 126.855 44.536 L 128.883 44.536 L 128.883 45.757 L 131.195 45.757 L 131.195 46.977 L 131.235 46.977 L 140.806 46.977 L 140.969 46.977 L 140.969 45.757 L 143.321 45.757 L 143.321 44.536 L 145.186 44.536 L 145.186 42.868 L 147.014 42.868 L 147.014 40.671 L 149.082 40.671 L 149.082 38.471 L 151.111 38.471 L 151.111 35.837 L 152.935 35.837 L 152.935 35.794 L 152.935 19.144 L 152.935 19.103 L 151.108 19.103 Z M 140.686 32.246 L 140.686 34.445 L 138.658 34.445 L 138.658 36.479 L 133.47 36.479 L 133.47 34.445 L 131.603 34.445 L 131.603 32.246 L 129.413 32.246 L 129.413 22.723 L 131.603 22.723 L 131.603 20.524 L 133.47 20.524 L 133.47 18.493 L 138.658 18.493 L 138.658 20.527 L 140.686 20.527 L 140.686 22.726 L 142.714 22.726 L 142.714 32.246 L 140.686 32.246 Z" style="fill: rgb(255, 255, 255);"/>
</svg>

<svg xmlns="http://www.w3.org/2000/svg" viewBox="0 0 264 47"><path d="M166.68 9.2V8.04h8.06v10.23h-5.73v2.02h-1.97v2.26h-2.26v9.82h1.96v2.08h2.15v2.19h5.85V47h-8v-1.27h-2.46v-1.2h-1.97v-1.67h-1.79v-2.22h-2.09v-2.18h-1.97v-2.62h-1.91V19.09h1.91v-2.53h1.91v-2.28h2.21V12.1h1.73v-1.58h1.78V9.2zm21.86-.19V8h8.61v1.01h2.46v1.28h1.85v1.83h1.97v1.96h2.03v2.26h2.09v30.64h-9.5V20.43h-2.06v-1.89H191v1.77h-2.21v2.14h-2.28v9.89h2.15v2.2h1.97v1.77h5.29v10.67h-7.38v-.84h-2.58v-1.28h-1.67v-1.77h-1.96v-2.08h-1.91v-2.38h-1.91V36h-2.09V19.15h1.78v-2.59h2.16v-2.24h1.97v-2.26h1.84v-1.65h1.91v-1.4zm-176.42 0V8h8.62v1.01h2.46v1.28h1.84v1.83h1.97v1.96h2.03v2.26h2.1v30.64h-9.51V20.43h-2.06v-1.89h-4.99v1.77h-2.21v2.14h-2.28v9.89h2.15v2.2h1.97v1.77h5.3v10.67h-7.39v-.84H9.54v-1.28H7.88v-1.77H5.91v-2.08H4v-2.38H2.09V36H0V19.15h1.78v-2.59h2.16v-2.24h1.97v-2.26h1.84v-1.65h1.91v-1.4zm216.83 9.12V8h-7.47v1.06h-2.37v1.25h-2.04v1.72h-2.05v2.19h-1.81v2.19h-1.97v2.73h-2.04v16.73h2.12v2.65h1.89v2.42h1.97v2.27h1.97v1.72h1.96v1.17h2.68v.88h8.97v-.8h2.44v-1.41h1.66v-1.95h1.81v-2.27h2.2v-2.18h1.97V0h-10.15v34.54h-1.74v1.79h-5.35v-1.79h-1.81v-2.35h-2.12v-9.76h2.28v-2.04h1.97v-2.26zm15.93.76v-2.46h1.72v-2.15h2.03v-2.2h1.78v-1.77h2.03V8.86h2.29V8H264v10.32h-6.48v1.57h-2.09v1.2h-1.91v1.39H264v9.65h-10.42v1.51h1.97v1.2h1.84v1.51H264v10.63h-9.27v-.85h-2.16V44.8h-1.97v-1.76h-1.84v-1.96h-2.16v-2.52h-1.72v-2.78h-2.29v-16.9zm-182.2 3.83v-6.26h-1.95v-2.32h-2.01v-2.13h-1.81v-1.65h-1.9V9.05h-2.36V8h-9.74v1.05h-2.6v1.31h-1.74v1.65h-1.83v2.13h-2.11v2.2h-1.74v10.21h1.94v1.99h1.99v1.83H50.5v2.04h2.03v1.99h-2.11v2.08h-5.24v-2.16h-1.86v-2.03H32.89v6.22h1.94v2.12h2.03v2.11h2.03v1.67h1.79v1.3h2.43v1.27h9.66v-1.27h2.2v-1.3h1.94v-1.67h1.95v-2.07h1.91v-2.12h1.91v-9.76h-2.36v-1.92h-1.99V24.6H45.14v-2.04h-1.99v-1.99h1.99v-2.16h5.24v2.32h1.95v1.99zm21.87 14.04v-2.15h-1.99v-2.03h-1.82v-14.1h6.04v-3.61h-2.35v-2.24h-2.19v-1.7h-1.5V4.55H70.37v6.38h-1.34v1.7h-2.02v2.24h-2.55v3.61h5.91v17.35h2.03v2.43h1.7v2.36h1.98v2.4h1.75v1.78h1.74v1.3h2.63v.86h7.33v-10.2zm27.93-6.56h2.21v-2.19h1.84v-2.48h1.11v-9.16h-1.36v-2.03h-1.72v-2.16h-2.01v-1.7h-2.21V9.17h-2.13V8h-6.6v1.17h-1.84v1.31h-2.05v1.7H95.5v2.16h-1.97v1.99h-2.21v30.63h10.08V18.41h6.81v5.45h-2.09v1.46h-3.16v7.28l6.15 14.36h10.41zm38.62-11.1v-2.6h-2.02v-2.2H147v-2.2h-1.82v-1.58h-1.87v-1.3h-2.35V7.99h-9.78v1.23h-2.3v1.22h-2.03v1.66h-1.67v2.2h-2.15v2.2h-1.86v2.6h-1.99v16.77h1.99v2.6h1.86v2.2h2.15v2.2h1.67v1.67h2.02v1.22h2.31v1.22h9.78v-1.22h2.35v-1.22h1.87v-1.67H147v-2.2h2.07v-2.2h2.03v-2.63h1.82V19.1zm-10.4 13.15v2.2h-2.03v2.03h-5.19v-2.03h-1.87v-2.2h-2.19v-9.53h2.2v-2.2h1.86V18.5h5.19v2.04h2.03v2.2h2.02v9.52z" style="fill:#fff"/></svg>
